X:1
T:Meg Drummond
M:4/4
L:1/4
K:C
 z2 z A,| A,3/2 B,/2 C D| E/2D/2 C D E/2D/2| C3/2 A,/2 C D| E3 z/2 E/4F/4|\
 G3/2 E/2 E D/2C/2| D E B,3/2 E/2| E3/2 A,/2 A, B,| C3/2 D/2 B,3/2 E/2|\
 E3/2 A,/2 A, G,| A,4|
